X: 1635
T: the Smokey Chimney
%S: s:2 b:12(6+6)
B: O'Neill's 1850 #1635
O: Cronin
Z: Nick Terhorst, nickte@microsoft.com
Z: Compacted via repeats and multiple endings [JC]
M: C|
L: 1/8
K: D
(3ABc | dcde fdAF | GFGA BGEd | efge [1,3 cdec | defd A2 :|[2,4 cABc | dfec d2 :|
|: de | fefg afdf | gfga bgeg |[1,3 fgaf defd | cedB A2 :|[2,4 afge fdec | dfec d2 :|
